X:12202
T:Tripping Up The Stairs
R:Jig
B:Tuneworks Tunebook (https://www.tuneworks.co.uk/)
G:Tuneworks
Z:Jon Warbrick <jon.warbrick@googlemail.com>
M:6/8
L:1/8
K:D
|: "D"FAA "G"GBB | "D"FAd fed | "A"cBc ABc | "D"dfe dAG | 
"D"FAA "G"GBB | "D"FAd fed | "A"cBc ABc | [1 "D"dfe d2 A :| [2 "D"dfe d2 c || 
|: "Bm"dBB fBB | dBd fed | "A"cAA eAA | efe edc | 
"G"dBB fBB | dBd fed | "A"cBc ABc | "D"dfe d3 :|
